Origami/64x64/apps/lyx.svg

<svg xmlns="http://www.w3.org/2000/svg" width="64" height="64" version="1">
 <path style="opacity:0.2" d="m 10,56.200087 0,1.999964 C 10,59.750023 11.249578,61 12.800749,61 l 38.399302,0 C 52.750022,61 54,59.750023 54,58.200051 l 0,-1.999964 c 0,1.549972 -1.249978,2.799949 -2.799949,2.799949 l -38.399302,0 c -1.550371,0 -2.799949,-1.249977 -2.799949,-2.799949 z"/>
 <path style="fill:#cccccc" d="m 53.9992,57.200087 0,-50.3990824 c 0,-1.5511717 -1.247978,-2.799949 -2.799949,-2.799949 l -38.399302,0 C 11.248778,4.0010556 10,5.2498329 10,6.8010046 l 0,50.3990824 c 0,1.551972 1.248778,2.799949 2.799949,2.799949 l 38.399302,0 c 1.551171,0 2.799949,-1.248777 2.799949,-2.799949 z"/>
 <path style="fill:#4587cf;fill-rule:evenodd" d="m 19.684764,39 -5.684837,-13.16532 4.716275,-2.1803 3.663293,8.836939 4.429719,-2.255899 1.993284,4.252782 z"/>
 <path style="fill:#de5328;fill-rule:evenodd" d="m 36.286625,21.508773 5.000669,0.959616 1.07431,3.241561 2.19578,-2.504474 5.4764,1.154913 -4.91877,5.47838 L 47.891824,38 41.996571,37.427809 40.947928,33.003129 38.284337,36.644103 33.7,35.212697 38.309176,28.691776 Z"/>
 <path style="fill:#dfa722;fill-rule:evenodd" d="m 23.634612,26.247417 5.721736,0.776596 1.698053,3.550255 2.141061,-3.069484 5.758635,0.739625 -5.278764,7.544202 L 32.383334,43 27.030772,42.149443 27.953633,35.677661 Z"/>
 <path style="opacity:0.2;fill:#ffffff" d="M 12.800781 4.0019531 C 11.24961 4.0019531 10 5.2515627 10 6.8027344 L 10 7.8027344 C 10 6.2515627 11.24961 5.0019531 12.800781 5.0019531 L 51.199219 5.0019531 C 52.74919 5.0019531 54 6.2515627 54 7.8027344 L 54 6.8027344 C 54 5.2515627 52.74919 4.0019531 51.199219 4.0019531 L 12.800781 4.0019531 z"/>
</svg>

<svg width="64" height="64" version="1" xmlns="http://www.w3.org/2000/svg">
 <path d="m10 56.200087v1.999964c0 1.549972 1.249578 2.799949 2.800749 2.799949h38.399302c1.549971 0 2.799949-1.249977 2.799949-2.799949v-1.999964c0 1.549972-1.249978 2.799949-2.799949 2.799949h-38.399302c-1.550371 0-2.799949-1.249977-2.799949-2.799949z" style="opacity:.2"/>
 <path d="m53.9992 57.200087v-50.399082c0-1.5511717-1.247978-2.799949-2.799949-2.799949h-38.399302c-1.551171 0-2.799949 1.2487773-2.799949 2.799949v50.399082c0 1.551972 1.248778 2.799949 2.799949 2.799949h38.399302c1.551171 0 2.799949-1.248777 2.799949-2.799949z" style="fill:#cccccc"/>
 <path d="m19.684764 39-5.684837-13.16532 4.716275-2.1803 3.663293 8.836939 4.429719-2.255899 1.993284 4.252782z" style="fill-rule:evenodd;fill:#4587cf"/>
 <path d="m36.286625 21.508773 5.000669 0.959616 1.07431 3.241561 2.19578-2.504474 5.4764 1.154913-4.91877 5.47838l2.77681 8.161231-5.895253-0.572191-1.048643-4.42468-2.663591 3.640974-4.584337-1.431406 4.609176-6.520921z" style="fill-rule:evenodd;fill:#de5328"/>
 <path d="m23.634612 26.247417 5.721736 0.776596 1.698053 3.550255 2.141061-3.069484 5.758635 0.739625-5.278764 7.544202l-1.291999 7.211389-5.352562-0.850557 0.922861-6.471782z" style="fill-rule:evenodd;fill:#dfa722"/>
 <path d="m12.800781 4.0019531c-1.551171 0-2.800781 1.2496096-2.800781 2.8007813v1c0-1.5511717 1.24961-2.8007813 2.800781-2.8007813h38.398438c1.549971 0 2.800781 1.2496096 2.800781 2.8007813v-1c0-1.5511717-1.25081-2.8007813-2.800781-2.8007813h-38.398438z" style="fill:#ffffff;opacity:.2"/>
</svg>
